X: 25271
T: Man Of Aran, The
R: reel
M: 4/4
K: Bminor
|:FBfe dB (3BBB|Aced cA A2|FBfe dB B2|FB B2 cB B2|
FBfe dB B2|ce e2 ce e2|f3e dB B2|cedc dB B2:|
|:df f2 df f2|ce e2 ce e2|df f2 df f2|c2ec dB B2|
dfaf dfaf|cege cege|dfeg fB B2|f3e fedc:|

